icon/mi/grocery.svg

<?xml version="1.0" encoding="UTF-8"?>
<svg xmlns="http://www.w3.org/2000/svg" version="1.1" id="grocery" viewBox="0 0 15 15" height="1em" width="1em">
  <path d="M 13.199219 1.5 C 13.199219 1.5 11.808806 1.4588 11.253906 2 C 10.720406 2.5202 10.5 2.9177 10.5 4 L 1.1992188 4 L 2.59375 8.8144531 C 2.59725 8.8217531 2.6036219 8.8287375 2.6074219 8.8359375 C 2.8418219 9.4932375 3.4545469 9.9666406 4.1855469 9.9941406 C 4.1885469 9.9954406 4.1992187 10 4.1992188 10 L 10.699219 10 L 10.699219 10.199219 C 10.699219 10.199219 10.7 10.500391 10.5 10.900391 C 10.3 11.300391 10.200391 11.5 9.4003906 11.5 L 2.9003906 11.5 C 1.9003906 11.5 1.9003906 13 2.9003906 13 L 4.0996094 13 L 4.1992188 13 L 9.0996094 13 L 9.1992188 13 L 9.3007812 13 C 10.500781 13 11.399219 12.299609 11.699219 11.599609 C 11.999219 10.899609 12 10.300781 12 10.300781 L 12 10 L 12 4 C 12 3.4764 12.228619 3 12.699219 3 L 13.25 3 C 13.6642 3 14 2.6642 14 2.25 C 14 1.8358 13.6642 1.5 13.25 1.5 L 13.199219 1.5 z M 9.1992188 13 C 8.5992188 13 8.1992188 13.4 8.1992188 14 C 8.1992188 14.6 8.5992187 15 9.1992188 15 C 9.7992187 15 10.199219 14.6 10.199219 14 C 10.199219 13.4 9.7992188 13 9.1992188 13 z M 4.1992188 13 C 3.5992188 13 3.1992188 13.4 3.1992188 14 C 3.1992188 14.6 3.5992187 15 4.1992188 15 C 4.7992188 15 5.1992188 14.6 5.1992188 14 C 5.1992188 13.4 4.7992187 13 4.1992188 13 z " id="path5"/>
</svg>

<svg xmlns="http://www.w3.org/2000/svg" width="15" height="15"><path d="M13.2 1.5s-1.391-.041-1.946.5c-.534.52-.754.918-.754 2H1.2l1.394 4.814c.003.008.01.015.013.022.235.657.848 1.13 1.579 1.158l.013.006h6.5v.2s.001.3-.199.7c-.2.4-.3.6-1.1.6H2.9c-1 0-1 1.5 0 1.5H9.3c1.2 0 2.1-.7 2.4-1.4.3-.7.3-1.3.3-1.3V4c0-.524.229-1 .7-1h.55a.75.75 0 0 0 0-1.5h-.05zM9.2 13c-.6 0-1 .4-1 1s.4 1 1 1 1-.4 1-1-.4-1-1-1zm-5 0c-.6 0-1 .4-1 1s.4 1 1 1 1-.4 1-1-.4-1-1-1z"/></svg>
